svgs/sharp-regular/waveform-lines.svg

<svg xmlns="http://www.w3.org/2000/svg" viewBox="0 0 640 512"><!--! Font Awesome Pro 6.6.0 by @fontawesome - https://fontawesome.com License - https://fontawesome.com/license (Commercial License) Copyright 2024 Fonticons, Inc. --><path d="M344 0l0 24 0 464 0 24-48 0 0-24 0-464 0-24 48 0zM544 64l0 24 0 336 0 24-48 0 0-24 0-336 0-24 48 0zM240 96l0 24 0 272 0 24-48 0 0-24 0-272 0-24 48 0zm208 32l0 24 0 208 0 24-48 0 0-24 0-208 0-24 48 0zM144 192l0 24 0 80 0 24-48 0 0-24 0-80 0-24 48 0zM48 224l0 24 0 16 0 24L0 288l0-24 0-16 0-24 48 0zm592 0l0 24 0 16 0 24-48 0 0-24 0-16 0-24 48 0z"/></svg>

<svg xmlns="http://www.w3.org/2000/svg" viewBox="0 0 640 512"><!--! Font Awesome Pro 6.4.0 by @fontawesome - https://fontawesome.com License - https://fontawesome.com/license (Commercial License) Copyright 2023 Fonticons, Inc. --><path d="M344 0V24 488v24H296V488 24 0h48zM544 64V88 424v24H496V424 88 64h48zM240 96v24V392v24H192V392 120 96h48zm208 32v24V360v24H400V360 152 128h48zM144 192v24 80 24H96V296 216 192h48zM48 224v24 16 24H0V264 248 224H48zm592 0v24 16 24H592V264 248 224h48z"/></svg>
